X:18
T:Lily of the Valley
C:from Luther Davis
M:C|
S:Get Up In The Cool Podcast, with Cameron DeWhitt and Adam Hurt
S:http://www.camerondewhitt.com/getupinthecool/adamhurt
N:Adam says this comes by way of Dan Gellert.
L:1/8
G:Key: D
Z:abc-transcription Josh Larios <hades@elsewhere.org>, 2017.01.28
Z:abc-copyright This transcription is licensed under a Creative Commons Attribution-ShareAlike 4.0 International License.
K:D
[P:A]y0|: dB |"D"AA Bd ed Bd | {e}f2- fg f2 dB | AA Bd ef ed | "G"{A}B2- Bd B2 dB | 
| "D"AA Bd ed Bd | {e}f2- fg f2 AA | "G"BB dd "A"ef eB | "D"d2- dD d2 :|
[P:B]y0|: a2 | "D"fe de fe d2 | {e}f2- fg f2 a2 | fe d2 ef ed | "G"{A}B2- BB B2 a2 | 
| "D"fe d2 fe d2 | {e}f2- ff f2 AA | "G"BB dd "A"ef eB | "D"d2- dD d2 :|

